dist/svgs/crypto-icons/icons/steem.svg

<?xml version="1.0" encoding="UTF-8" standalone="yes"?>
<svg xmlns="http://www.w3.org/2000/svg" xmlns:xlink="http://www.w3.org/1999/xlink" width="512px" height="512px" viewBox="0 0 384 384" version="1.1">
  <g id="surface1">
    <path style=" stroke:none;fill-rule:nonzero;fill:rgb(0%,0%,0%);fill-opacity:1;" d="M 62.757812 41.445312 C 58.867188 39.585938 10.828125 79.335938 10.828125 108.601562 C 10.828125 148.523438 66.988281 239.195312 76.460938 274.214844 C 84.582031 304.324219 62.589844 340.355469 68.679688 342.046875 C 74.261719 345.601562 126.703125 292.484375 128.734375 269.816406 C 131.441406 233.785156 67.496094 128.5625 62.421875 101.496094 C 56.332031 69.863281 66.988281 42.121094 62.757812 41.445312 Z M 182.863281 0 C 177.960938 -2.367188 116.554688 48.210938 116.554688 85.597656 C 116.554688 136.683594 188.109375 252.222656 200.289062 296.882812 C 210.609375 335.28125 182.695312 381.292969 190.308594 383.324219 C 197.414062 387.890625 264.234375 320.226562 266.769531 291.296875 C 270.152344 245.285156 188.617188 111.308594 182.1875 76.628906 C 174.746094 36.371094 188.277344 1.015625 182.863281 0 Z M 306.863281 41.445312 C 303.140625 39.585938 254.929688 79.335938 254.929688 108.601562 C 254.929688 148.523438 311.089844 239.195312 320.5625 274.214844 C 328.683594 304.324219 306.691406 340.355469 312.78125 342.046875 C 318.363281 345.601562 370.804688 292.484375 372.835938 269.816406 C 375.542969 233.785156 311.597656 128.5625 306.523438 101.496094 C 300.601562 69.863281 311.089844 42.121094 306.863281 41.445312 Z M 306.863281 41.445312 "/>
  </g>
</svg>

<svg xmlns="http://www.w3.org/2000/svg" viewBox="0 0 384 384"><path d="M62.758 41.445c-3.89-1.86-51.93 37.89-51.93 67.157 0 39.921 56.16 130.593 65.633 165.613 8.121 30.11-13.871 66.14-7.781 67.832 5.582 3.555 58.023-49.563 60.054-72.23 2.707-36.032-61.238-141.255-66.312-168.32-6.09-31.634 4.566-59.376.336-60.052zM182.863 0c-4.902-2.367-66.308 48.21-66.308 85.598 0 51.086 71.554 166.625 83.734 211.285 10.32 38.398-17.594 84.41-9.98 86.441 7.105 4.567 73.925-63.097 76.46-92.027 3.383-46.012-78.152-179.988-84.582-214.668-7.44-40.258 6.09-75.613.676-76.629zm124 41.445c-3.722-1.86-51.933 37.89-51.933 67.157 0 39.921 56.16 130.593 65.632 165.613 8.122 30.11-13.87 66.14-7.78 67.832 5.581 3.555 58.023-49.563 60.054-72.23 2.707-36.032-61.238-141.255-66.313-168.32-5.921-31.634 4.567-59.376.34-60.052zm0 0"/></svg>
